public/avatar/hat/192.svg

<svg xmlns:xlink="http://www.w3.org/1999/xlink" height="92.9" width="100.7" xmlns="http://www.w3.org/2000/svg"><use height="23.5" transform="translate(11.75 45.1)" width="52.15" xlink:href="#a"/><defs><g id="a" fill-rule="evenodd"><path d="m13.6 6.6 2.8 1.7q2.95.95 3.95-3 2.35 3 1.1 5.25l-3.6.4q-3.75-.3-4.6-4l.35-.35" fill="#6d6d6d" transform="translate(26.9 4.65)"/><path d="m13.45 6.85 2.8 1.85q3 1.15 4.25-2.25 1.25 2.1.6 3.6-1.35.65-2.95.55-3.25-.2-4.7-3.75" fill="#fdfcff" transform="translate(26.9 4.65)"/><path d="M25.2 18.05q-4.95 1.45-6.3.3 6.05-2.25 1.85-5.15-4.7-.5-5.95-2.05l-.85-1.45q-.7-1.65-.25-2.8l.4 2q.9 2.05 3.2 2.4l2.8.35q3.05.6 4 1.8 1.45 3.5 1.1 4.6" fill="#6d6d6d" transform="translate(26.9 4.65)"/><path d="m14.25 9.65 1.35 1.25q1.85 1.25 4.45 1.2l2.45.65q2.35 1.35 2.05 4.7-3.3 1.15-4.6.9 5.8-2.85.95-5.3-5.9-1.45-6.65-3.4" fill="#fff" transform="translate(26.9 4.65)"/><path d="m-15.15 6.8.35.3q-.85 3.7-4.6 4.05l-3.6-.45q-.8-1.4.1-3.45l1-1.8q1 3.95 4 3.05 1.45-.45 2.75-1.7" fill="#6d6d6d" transform="translate(26.9 4.65)"/><path d="M-15 7.05q-1.45 3.55-4.7 3.7l-2.95-.55q-.4-.95.05-2.35l.55-1.25q1.25 3.4 4.3 2.25 1.5-.55 2.75-1.8" fill="#fdfcff" transform="translate(26.9 4.65)"/><path d="M-15.1 7.2q.7 1.8-1.2 4.2-1.25 1.55-6 1.95-2.65 1.75-.7 3.65.95.95 2.45 1.55l-3.65.15-2.65-.65q-.2-.7.45-2.65l.75-1.85q1.6-1.9 6.85-2 3.7-.55 3.7-4.35" fill="#6d6d6d" transform="translate(26.9 4.65)"/><path d="M-15.7 9.95q-.8 1.9-6.75 3.2-3.05 1.5-1.4 3.6.8 1 2.25 1.75l-4.6-1q-.25-3.35 2.2-4.65 1.2-.6 2.45-.6 4.2.2 5.85-2.3" fill="#fff" transform="translate(26.9 4.65)"/><path d="M16.8-1.05q1.65 3.3-.4 6.5-.85 1.7-2.8 2.35.3 3.2-.1 4.35-2.15-9.25-7.1-11.1L1.1-.65l-11.3 4.7-3.75 6.05-.9 3.25.25 1.45q-1.2-1.4-1-3.7l.45-2Q-16.6 8.95-18 6.8l-1.1-2.15q-.95-5.5 4.25-7.65 3.45-1.45 6 .2 1.3.85 1.9 1.95l1.8-1.1Q-2.9-3-.55-2.7l1.5-.35q1.9-.2 3.8.65L7.7-4.1q3.65-1.3 7.05.4l2.05 2.65" fill="#3f100c" transform="translate(26.9 4.65)"/><path d="m6-.75-7.25-.65 2-.8Q3.3-2.6 6-.75" fill="#4f1912" transform="translate(26.9 4.65)"/><path d="M-.35-1.75-7.75.1l2.15-1.4q2.65-1.25 5.25-.45" fill="#4f1912" transform="translate(26.9 4.65)"/><path d="M5.65-1.05q6.8 2.85 7.85 13.3-1.1-2.2-3.1-4.1Q6.35 4.35 1.65 6l.25-1q.3-.6.9-.95L-.8 5.4q-4.75 1.8-5.7 2.85l-.05-.5q.2-1 1.45-3.25-5 2-6.15 4.25l-3.95 6.1q-.65-3.7.8-7.6 2.85-7.85 13.4-9l2.05-.15q2.45 0 4.6.85" fill="#4f1912" transform="translate(26.9 4.65)"/><path d="M-8.6-1.6Q-6.85 0-6.85 2.3T-8.6 6.25q-1.7 1.6-4.15 1.6t-4.15-1.6q-1.7-1.65-1.7-3.95 0-2.3 1.7-3.9 1.7-1.65 4.15-1.65T-8.6-1.6m23.7-.95q1.75 1.6 1.75 3.9T15.1 5.3q-1.7 1.65-4.15 1.65T6.8 5.3Q5.1 3.7 5.1 1.35q0-2.3 1.7-3.9Q8.5-4.2 10.95-4.2t4.15 1.65" fill="#4f1912" transform="translate(26.9 4.65)"/><path d="M16-1.55q-1.25 5.9-5.35 5.6Q14.3 2.5 16-1.55M8.85.1q4.65-.1 6.7-1.75-3.7 3.9-7.7 2.4-1.35-.5-1-.6l2-.05m6.3-2.15q-5-1.75-7.35 1l1.15-1.6q2.45-1.85 6.2.6m-27.7 7.25q-2.55.2-4.15-2.7l-1.15-2.95q1.7 4.05 5.3 5.65m1.85-4 1.95.05q.35.1-1 .6-2.5.95-5.3-.6L-17-.2q2 1.35 6.3 1.4m-6.35-2.15q3.75-2.4 6.25-.55 1.2.9 1.7 2.3-1.4-2.3-4.8-2.25l-3.15.5" fill="#7b5148" transform="translate(26.9 4.65)"/><path d="M10.5 3.2q2.5 2.35 3.1 8.65l-2.5-4.1q1.3-1.45-.6-4.55" fill="#3f100c" transform="translate(26.9 4.65)"/><path d="M2.5 4.2q-7.55 2.65-9 4.05l-.05-.7 1.25-2.9q-6.35 2.8-9.75 10.15l-.15.25-.2-3q.05-3.45 1.35-5.6l-.25 2.05q-.2 2.3.25 2.95l1.9-3.2Q-9.25 4.7-4.3 3.2l1.6.05-1.05.8Q-4.8 5-4.85 6L-2 4.5q3.5-1.45 6.6-1.15l-1.4 1.6 2.3-.15q2.9.25 5.85 2.2-.05-3-.85-3.8 2.2 1.9 3 9.05-1.1-2.2-3.1-4.1Q6.35 4.4 1.65 6l.85-1.8" fill="#3f100c" transform="translate(26.9 4.65)"/><path d="m-5.85 3.85 1.05-.45 3.5-.35Q-4.2 3.6-4.85 6l-1-2.15" fill="#3f100c" transform="translate(26.9 4.65)"/><path d="M7.6-.65q.15 1.7 1.3.6 1.85-.25 1.2.85-.7.8-.15 1.15l.65.25q2.05-.2 1.75 1.15-.55.85-.3 1.35l.35.35q3.1.55-.3 1.95l-7-8.3 1.15-.75q2.1-.6 1.35 1.4" fill="#fff" transform="translate(26.9 4.65)"/><path d="M12.15 5.75q1.5-.25.35.75l-.35-.75M11.4 4.3q-.65-1.35-1.25-1.5 2.25-.35 1.25 1.5M9.25 1.8Q8.4.75 8.1.8q1.9-.8 1.15 1M7.15 0l-1.6-.8q1.6-1.25 1.6.8m6.1 5.3-.85-.25-.5-.75 1.35 1" fill="#9c9a9c" transform="translate(26.9 4.65)"/><path d="M12.35 2.75q-.7-.75-1.75-.55l-.6-.25q-.5-.4-.2-.85l.95.7q1.9.25 1.6.95M9.3-.35q.85 0 .85.45L8.5.2Q7.45.7 7.7-.85l.1.4q.15.4.6.25l.9-.15" fill="#9c9a9c" transform="translate(26.9 4.65)"/><path d="m11.65 3.6-1.5-.8q1.85.05 1.5.8m-4.7-4.7L5.5-.7q.5-.65 1.45-.4M9.8 1.1q.3 1 1.1 1-1.05.15-1.2-.4l.1-.6M9.55-.05Q7.9.9 7.65-.15l.6.25 1.3-.15M13.6 5.6q-1.5-.35-1.65-1.1l1.65 1.1" fill="#6d6d6d" transform="translate(26.9 4.65)"/><path d="m-8.4-.95 1.1.75-7 8.3-1.3-.75q-.9-.8 1-1.15.95-.4.05-1.7l.1-.65q.35-.65 1.65-.55 1.65-.1.5-1.35l-.05-.55q.15-.5 1.25-.35Q-9.9 2.2-9.8.5l-.1-.95q.15-.85 1.5-.5" fill="#fff" transform="translate(26.9 4.65)"/><path d="m-14.35 6.85-.3.75q-.75-.6-.3-.75h.6m.75-1.4q-.6-1.2.25-1.45l1-.05-1.25 1.5m2.2-2.5q-.45-1.15.25-1.2l.85.2-1.1 1M-7.75.3l-1.6.8q0-2.05 1.6-.8m-8.05 6.45 1.7-1.3-.5.75-1.2.55m1.25-2.9q-.2-.4.7-.7l.95-.2.9-.7q.5.75-.8 1.05l-1.75.55m2.2-2.6q0-.5.9-.45l.9.1q.65.25.65-.6.25 1.55-.8 1.05l-1.65-.1" fill="#9c9a9c" transform="translate(26.9 4.65)"/><path d="m-13.8 4.75.05-.4q.25-.35 1.4-.4l-1.45.8m2.25-2.65.25-.25 1.15.2-1.4.05m-.45.15q.6 1.2-1.05 1 .75 0 1.05-1m.25-1.15L-9.8.95q-.25 1.1-1.95.15m-4.05 5.65 1.65-1.15q-.15.75-1.65 1.15" fill="#6d6d6d" transform="translate(26.9 4.65)"/><path d="M11.55 4.6q1.15 2.1 1.2 3.7L3.5-1.9Q9.2.45 11.55 4.6m-25.3 1.25q2.35-4.15 8-6.5L-15 9.55l1.25-3.7" fill="#4f1912" transform="translate(26.9 4.65)"/><path d="M5.05-.25Q3.1 1.05.15 1l-2.5-.25q.4.3-.45.7Q-3.25.6-4.45.5L-5.5.55q-.8-.3-1.8.7l-.85 1.05q-.35-.7.95-1.6.65-.45 1.4-.75 5.35 1.4 10.85-.2" fill="#7b5148" transform="translate(26.9 4.65)"/><path d="M-2.45 2.1q0-.5-.85-1.1-3-1-4.85 1.3-1.2 1.45-.55.35l.9-1.45 1.65-.95 1.2-.05 2.1.4.15.3q.65.25.25 1.2" fill="#7b5148" transform="translate(26.9 4.65)"/><path d="M-2.55 2.15-2.85.6l1.25.2-.95 1.35M3.05.3q.8.25 1.35 1.15Q3.9 1 2.35.6q.8.4.5 1.95-.25-.7-1.5-1.3L.1.8 3.05.3M-14 11q1.1-4.8 5.2-5.9-1.9 1.25-3.75 3.7L-14 11" fill="#7b5148" transform="translate(26.9 4.65)"/><path d="m3.25-1.55-2.6.45-1.15.6q-.35-.6-2.65-.6l-2.25.15Q-3-2.4-.25-1.4l3.5-.15m-12.2 3q-1.5.9-3.15 3.35l-1.5 2.65q0-3.4 4.65-6M5.4.7q4.8 1.95 5.45 4.75Q7.25 1.65 5.4.7" fill="#3f100c" transform="translate(26.9 4.65)"/><path d="m-17.75 1.25-.25 1.8q-.85-4.3 2.85-5.3-1.95 1.4-2.6 3.5m33.15-2.7q1.85 3.05-.7 5.95 1.3-3.05.7-5.95" fill="#fff" transform="translate(26.9 4.65)"/></g></defs></svg>

<?xml version="1.0" encoding="UTF-8" standalone="no"?>
<svg xmlns:xlink="http://www.w3.org/1999/xlink" height="92.9px" width="100.7px" xmlns="http://www.w3.org/2000/svg">
  <g transform="matrix(1.0, 0.0, 0.0, 1.0, 38.65, 49.75)">
    <use height="23.5" transform="matrix(1.0, 0.0, 0.0, 1.0, -26.9, -4.65)" width="52.15" xlink:href="#shape0"/>
  </g>
  <defs>
    <g id="shape0" transform="matrix(1.0, 0.0, 0.0, 1.0, 26.9, 4.65)">
      <path d="M13.6 6.6 L16.4 8.3 Q19.35 9.25 20.35 5.3 22.7 8.3 21.45 10.55 L17.85 10.95 Q14.1 10.65 13.25 6.95 L13.6 6.6" fill="#6d6d6d" fill-rule="evenodd" stroke="none"/>
      <path d="M13.45 6.85 L16.25 8.7 Q19.25 9.85 20.5 6.45 21.75 8.55 21.1 10.05 19.75 10.7 18.15 10.6 14.9 10.4 13.45 6.85" fill="#fdfcff" fill-rule="evenodd" stroke="none"/>
      <path d="M25.2 18.05 Q20.25 19.5 18.9 18.35 24.95 16.1 20.75 13.2 16.05 12.7 14.8 11.15 L13.95 9.7 Q13.25 8.05 13.7 6.9 L14.1 8.9 Q15.0 10.95 17.3 11.3 L20.1 11.65 Q23.15 12.25 24.1 13.45 25.55 16.95 25.2 18.05" fill="#6d6d6d" fill-rule="evenodd" stroke="none"/>
      <path d="M14.25 9.65 L15.6 10.9 Q17.45 12.15 20.05 12.1 L22.5 12.75 Q24.85 14.1 24.55 17.45 21.25 18.6 19.95 18.35 25.75 15.5 20.9 13.05 15.0 11.6 14.25 9.65" fill="#ffffff" fill-rule="evenodd" stroke="none"/>
      <path d="M-15.15 6.8 L-14.8 7.1 Q-15.65 10.8 -19.4 11.15 L-23.0 10.7 Q-23.8 9.3 -22.9 7.25 L-21.9 5.45 Q-20.9 9.4 -17.9 8.5 -16.45 8.05 -15.15 6.8" fill="#6d6d6d" fill-rule="evenodd" stroke="none"/>
      <path d="M-15.0 7.05 Q-16.45 10.6 -19.7 10.75 L-22.65 10.2 Q-23.05 9.25 -22.6 7.85 L-22.05 6.6 Q-20.8 10.0 -17.75 8.85 -16.25 8.3 -15.0 7.05" fill="#fdfcff" fill-rule="evenodd" stroke="none"/>
      <path d="M-15.1 7.2 Q-14.4 9.0 -16.3 11.4 -17.55 12.95 -22.3 13.35 -24.95 15.1 -23.0 17.0 -22.05 17.95 -20.55 18.55 L-24.2 18.7 -26.85 18.05 Q-27.05 17.35 -26.4 15.4 L-25.65 13.55 Q-24.05 11.65 -18.8 11.55 -15.1 11.0 -15.1 7.2" fill="#6d6d6d" fill-rule="evenodd" stroke="none"/>
      <path d="M-15.7 9.95 Q-16.5 11.85 -22.45 13.15 -25.5 14.65 -23.85 16.75 -23.05 17.75 -21.6 18.5 L-26.2 17.5 Q-26.45 14.15 -24.0 12.85 -22.8 12.25 -21.55 12.25 -17.35 12.45 -15.7 9.95" fill="#ffffff" fill-rule="evenodd" stroke="none"/>
      <path d="M16.8 -1.05 Q18.45 2.25 16.4 5.45 15.55 7.15 13.6 7.8 13.9 11.0 13.5 12.15 11.35 2.9 6.4 1.05 L1.1 -0.65 -10.2 4.05 -13.95 10.1 -14.85 13.35 -14.6 14.8 Q-15.8 13.4 -15.6 11.1 L-15.15 9.1 Q-16.6 8.95 -18.0 6.8 L-19.1 4.65 Q-20.05 -0.85 -14.85 -3.0 -11.4 -4.45 -8.85 -2.8 -7.55 -1.95 -6.95 -0.85 L-5.15 -1.95 Q-2.9 -3.0 -0.55 -2.7 L0.95 -3.05 Q2.85 -3.25 4.75 -2.4 L7.7 -4.1 Q11.35 -5.4 14.75 -3.7 L16.8 -1.05" fill="#3f100c" fill-rule="evenodd" stroke="none"/>
      <path d="M6.0 -0.75 L-1.25 -1.4 0.75 -2.2 Q3.3 -2.6 6.0 -0.75" fill="#4f1912" fill-rule="evenodd" stroke="none"/>
      <path d="M-0.35 -1.75 L-7.75 0.1 -5.6 -1.3 Q-2.95 -2.55 -0.35 -1.75" fill="#4f1912" fill-rule="evenodd" stroke="none"/>
      <path d="M5.65 -1.05 Q12.45 1.8 13.5 12.25 12.4 10.05 10.4 8.15 6.35 4.35 1.65 6.0 L1.9 5.0 Q2.2 4.4 2.8 4.05 L-0.8 5.4 Q-5.55 7.2 -6.5 8.25 L-6.55 7.75 Q-6.35 6.75 -5.1 4.5 -10.1 6.5 -11.25 8.75 L-15.2 14.85 Q-15.85 11.15 -14.4 7.25 -11.55 -0.6 -1.0 -1.75 L1.05 -1.9 Q3.5 -1.9 5.65 -1.05" fill="#4f1912" fill-rule="evenodd" stroke="none"/>
      <path d="M-8.6 -1.6 Q-6.85 0.0 -6.85 2.3 -6.85 4.6 -8.6 6.25 -10.3 7.85 -12.75 7.85 -15.2 7.85 -16.9 6.25 -18.6 4.6 -18.6 2.3 -18.6 0.0 -16.9 -1.6 -15.2 -3.25 -12.75 -3.25 -10.3 -3.25 -8.6 -1.6" fill="#4f1912" fill-rule="evenodd" stroke="none"/>
      <path d="M15.1 -2.55 Q16.85 -0.95 16.85 1.35 16.85 3.65 15.1 5.3 13.4 6.95 10.95 6.95 8.5 6.95 6.8 5.3 5.1 3.7 5.1 1.35 5.1 -0.95 6.8 -2.55 8.5 -4.2 10.95 -4.2 13.4 -4.2 15.1 -2.55" fill="#4f1912" fill-rule="evenodd" stroke="none"/>
      <path d="M16.0 -1.55 Q14.75 4.35 10.65 4.05 14.3 2.5 16.0 -1.55" fill="#7b5148" fill-rule="evenodd" stroke="none"/>
      <path d="M8.85 0.1 Q13.5 0.0 15.55 -1.65 11.85 2.25 7.85 0.75 6.5 0.25 6.85 0.15 L8.85 0.1" fill="#7b5148" fill-rule="evenodd" stroke="none"/>
      <path d="M15.15 -2.05 Q10.15 -3.8 7.8 -1.05 L8.95 -2.65 Q11.4 -4.5 15.15 -2.05" fill="#7b5148" fill-rule="evenodd" stroke="none"/>
      <path d="M-12.55 5.2 Q-15.1 5.4 -16.7 2.5 L-17.85 -0.45 Q-16.15 3.6 -12.55 5.2" fill="#7b5148" fill-rule="evenodd" stroke="none"/>
      <path d="M-10.7 1.2 L-8.75 1.25 Q-8.4 1.35 -9.75 1.85 -12.25 2.8 -15.05 1.25 L-17.0 -0.2 Q-15.0 1.15 -10.7 1.2" fill="#7b5148" fill-rule="evenodd" stroke="none"/>
      <path d="M-17.05 -0.95 Q-13.3 -3.35 -10.8 -1.5 -9.6 -0.6 -9.1 0.8 -10.5 -1.5 -13.9 -1.45 L-17.05 -0.95" fill="#7b5148" fill-rule="evenodd" stroke="none"/>
      <path d="M10.5 3.2 Q13.0 5.55 13.6 11.85 L11.1 7.75 Q12.4 6.3 10.5 3.2" fill="#3f100c" fill-rule="evenodd" stroke="none"/>
      <path d="M2.5 4.2 Q-5.05 6.85 -6.5 8.25 L-6.55 7.55 -5.3 4.65 Q-11.65 7.45 -15.05 14.8 L-15.2 15.05 -15.4 12.05 Q-15.35 8.6 -14.05 6.45 L-14.3 8.5 Q-14.5 10.8 -14.05 11.45 L-12.15 8.25 Q-9.25 4.7 -4.3 3.2 L-2.7 3.25 -3.75 4.05 Q-4.8 5.0 -4.85 6.0 L-2.0 4.5 Q1.5 3.05 4.6 3.35 L3.2 4.95 5.5 4.8 Q8.4 5.05 11.35 7.0 11.3 4.0 10.5 3.2 12.7 5.1 13.5 12.25 12.4 10.05 10.4 8.15 6.35 4.4 1.65 6.0 L2.5 4.2" fill="#3f100c" fill-rule="evenodd" stroke="none"/>
      <path d="M-5.85 3.85 L-4.8 3.4 -1.3 3.05 Q-4.2 3.6 -4.85 6.0 L-5.85 3.85" fill="#3f100c" fill-rule="evenodd" stroke="none"/>
      <path d="M7.6 -0.65 Q7.75 1.05 8.9 -0.05 10.75 -0.3 10.1 0.8 9.4 1.6 9.95 1.95 L10.6 2.2 Q12.65 2.0 12.35 3.35 11.8 4.2 12.05 4.7 L12.4 5.05 Q15.5 5.6 12.1 7.0 L5.1 -1.3 6.25 -2.05 Q8.35 -2.65 7.6 -0.65" fill="#ffffff" fill-rule="evenodd" stroke="none"/>
      <path d="M12.15 5.75 Q13.65 5.5 12.5 6.5 L12.15 5.75" fill="#9c9a9c" fill-rule="evenodd" stroke="none"/>
      <path d="M11.4 4.3 Q10.75 2.95 10.15 2.8 12.4 2.45 11.4 4.3" fill="#9c9a9c" fill-rule="evenodd" stroke="none"/>
      <path d="M9.25 1.8 Q8.4 0.75 8.1 0.8 10.0 0.0 9.25 1.8" fill="#9c9a9c" fill-rule="evenodd" stroke="none"/>
      <path d="M7.15 0.0 L5.55 -0.8 Q7.15 -2.05 7.15 0.0" fill="#9c9a9c" fill-rule="evenodd" stroke="none"/>
      <path d="M13.25 5.3 L12.4 5.05 11.9 4.3 13.25 5.3" fill="#9c9a9c" fill-rule="evenodd" stroke="none"/>
      <path d="M12.35 2.75 Q11.65 2.0 10.6 2.2 L10.0 1.95 Q9.5 1.55 9.8 1.1 L10.75 1.8 Q12.65 2.05 12.35 2.75" fill="#9c9a9c" fill-rule="evenodd" stroke="none"/>
      <path d="M9.3 -0.35 Q10.15 -0.35 10.15 0.1 L8.5 0.2 Q7.45 0.7 7.7 -0.85 L7.8 -0.45 Q7.95 -0.05 8.4 -0.2 L9.3 -0.35" fill="#9c9a9c" fill-rule="evenodd" stroke="none"/>
      <path d="M11.65 3.6 L10.15 2.8 Q12.0 2.85 11.65 3.6" fill="#6d6d6d" fill-rule="evenodd" stroke="none"/>
      <path d="M6.95 -1.1 L5.5 -0.7 Q6.0 -1.35 6.95 -1.1" fill="#6d6d6d" fill-rule="evenodd" stroke="none"/>
      <path d="M9.8 1.1 Q10.1 2.1 10.9 2.1 9.85 2.25 9.7 1.7 L9.8 1.1" fill="#6d6d6d" fill-rule="evenodd" stroke="none"/>
      <path d="M9.55 -0.05 Q7.9 0.9 7.65 -0.15 L8.25 0.1 9.55 -0.05" fill="#6d6d6d" fill-rule="evenodd" stroke="none"/>
      <path d="M13.6 5.6 Q12.1 5.25 11.95 4.5 L13.6 5.6" fill="#6d6d6d" fill-rule="evenodd" stroke="none"/>
      <path d="M-8.4 -0.95 L-7.3 -0.2 -14.3 8.1 -15.6 7.35 Q-16.5 6.55 -14.6 6.2 -13.65 5.8 -14.55 4.5 L-14.45 3.85 Q-14.1 3.2 -12.8 3.3 -11.15 3.2 -12.3 1.95 L-12.35 1.4 Q-12.2 0.9 -11.1 1.05 -9.9 2.2 -9.8 0.5 L-9.9 -0.45 Q-9.75 -1.3 -8.4 -0.95" fill="#ffffff" fill-rule="evenodd" stroke="none"/>
      <path d="M-14.35 6.85 L-14.65 7.6 Q-15.4 7.0 -14.95 6.85 L-14.35 6.85" fill="#9c9a9c" fill-rule="evenodd" stroke="none"/>
      <path d="M-13.6 5.45 Q-14.2 4.25 -13.35 4.0 L-12.35 3.95 -13.6 5.45" fill="#9c9a9c" fill-rule="evenodd" stroke="none"/>
      <path d="M-11.4 2.95 Q-11.85 1.8 -11.15 1.75 L-10.3 1.95 -11.4 2.95" fill="#9c9a9c" fill-rule="evenodd" stroke="none"/>
      <path d="M-7.75 0.3 L-9.35 1.1 Q-9.35 -0.95 -7.75 0.3" fill="#9c9a9c" fill-rule="evenodd" stroke="none"/>
      <path d="M-15.8 6.75 L-14.1 5.45 -14.6 6.2 -15.8 6.75" fill="#9c9a9c" fill-rule="evenodd" stroke="none"/>
      <path d="M-14.55 3.85 Q-14.75 3.45 -13.85 3.15 L-12.9 2.95 -12.0 2.25 Q-11.5 3.0 -12.8 3.3 L-14.55 3.85" fill="#9c9a9c" fill-rule="evenodd" stroke="none"/>
      <path d="M-12.35 1.25 Q-12.35 0.75 -11.45 0.8 L-10.55 0.9 Q-9.9 1.15 -9.9 0.3 -9.65 1.85 -10.7 1.35 L-12.35 1.25" fill="#9c9a9c" fill-rule="evenodd" stroke="none"/>
      <path d="M-13.8 4.75 L-13.75 4.35 Q-13.5 4.0 -12.35 3.95 L-13.8 4.75" fill="#6d6d6d" fill-rule="evenodd" stroke="none"/>
      <path d="M-11.55 2.1 L-11.3 1.85 -10.15 2.05 -11.55 2.1" fill="#6d6d6d" fill-rule="evenodd" stroke="none"/>
      <path d="M-12.0 2.25 Q-11.4 3.45 -13.05 3.25 -12.3 3.25 -12.0 2.25" fill="#6d6d6d" fill-rule="evenodd" stroke="none"/>
      <path d="M-11.75 1.1 L-9.8 0.95 Q-10.05 2.05 -11.75 1.1" fill="#6d6d6d" fill-rule="evenodd" stroke="none"/>
      <path d="M-15.8 6.75 L-14.15 5.6 Q-14.3 6.35 -15.8 6.75" fill="#6d6d6d" fill-rule="evenodd" stroke="none"/>
      <path d="M11.55 4.6 Q12.7 6.7 12.75 8.3 L3.5 -1.9 Q9.2 0.45 11.55 4.6" fill="#4f1912" fill-rule="evenodd" stroke="none"/>
      <path d="M-13.75 5.85 Q-11.4 1.7 -5.75 -0.65 L-15.0 9.55 -13.75 5.85" fill="#4f1912" fill-rule="evenodd" stroke="none"/>
      <path d="M5.05 -0.25 Q3.1 1.05 0.15 1.0 L-2.35 0.75 Q-1.95 1.05 -2.8 1.45 -3.25 0.6 -4.45 0.5 L-5.5 0.55 Q-6.3 0.25 -7.3 1.25 L-8.15 2.3 Q-8.5 1.6 -7.2 0.7 -6.55 0.25 -5.8 -0.05 -0.45 1.35 5.05 -0.25" fill="#7b5148" fill-rule="evenodd" stroke="none"/>
      <path d="M-2.45 2.1 Q-2.45 1.6 -3.3 1.0 -6.3 0.0 -8.15 2.3 -9.35 3.75 -8.7 2.65 L-7.8 1.2 -6.15 0.25 -4.95 0.2 -2.85 0.6 -2.7 0.9 Q-2.05 1.15 -2.45 2.1" fill="#7b5148" fill-rule="evenodd" stroke="none"/>
      <path d="M-2.55 2.15 L-2.85 0.6 -1.6 0.8 -2.55 2.15" fill="#7b5148" fill-rule="evenodd" stroke="none"/>
      <path d="M3.05 0.3 Q3.85 0.55 4.4 1.45 3.9 1.0 2.35 0.6 3.15 1.0 2.85 2.55 2.6 1.85 1.35 1.25 L0.1 0.8 3.05 0.3" fill="#7b5148" fill-rule="evenodd" stroke="none"/>
      <path d="M-14.0 11.0 Q-12.9 6.2 -8.8 5.1 -10.7 6.35 -12.55 8.8 L-14.0 11.0" fill="#7b5148" fill-rule="evenodd" stroke="none"/>
      <path d="M3.25 -1.55 L0.65 -1.1 -0.5 -0.5 Q-0.85 -1.1 -3.15 -1.1 L-5.4 -0.95 Q-3.0 -2.4 -0.25 -1.4 L3.25 -1.55" fill="#3f100c" fill-rule="evenodd" stroke="none"/>
      <path d="M-8.95 1.45 Q-10.45 2.35 -12.1 4.8 L-13.6 7.45 Q-13.6 4.05 -8.95 1.45" fill="#3f100c" fill-rule="evenodd" stroke="none"/>
      <path d="M5.4 0.7 Q10.2 2.65 10.85 5.45 7.25 1.65 5.4 0.7" fill="#3f100c" fill-rule="evenodd" stroke="none"/>
      <path d="M-17.75 1.25 L-18.0 3.05 Q-18.85 -1.25 -15.15 -2.25 -17.1 -0.85 -17.75 1.25" fill="#ffffff" fill-rule="evenodd" stroke="none"/>
      <path d="M15.4 -1.45 Q17.25 1.6 14.7 4.5 16.0 1.45 15.4 -1.45" fill="#ffffff" fill-rule="evenodd" stroke="none"/>
    </g>
  </defs>
</svg>
